X: 31562
T: COTILLION No. 40. YANKEE HILL'S SETT tune 2
C:
%R: reel
B: Elias Howe "The Musician's Companion" Part 3 1844 p.157 #2
S: http://imslp.org/wiki/The_Musician's_Companion_(Howe,_Elias)
Z: 2015 John Chambers <jc:trillian.mit.edu>
M: 2/4
L: 1/16
K: A
% - - - - - - - - - - - - - - - - - - - - - - - - -
c>d |\
e3c A2fe | e3d B2d2 | c>Ae>c a>ed>c | B>AG>F E2cd |\
e>cA>E C>EA>c | e>dc>d B2cd | e>af>d | c>eG>B | A2c2A2 H|]
GA |\
B>GE>G B>Ed>B | c>Ae>c a>ec>A | B>df>e d>cB>A | G>eB>G E>EF>G |\
A>EC>E A,>CE>A | B>AG>F E2Bd | c>ed>B A>cB>A | A2c2"^D.C."A2 |]
% - - - - - - - - - - Dance description - - - - - - - - - -
%%begintext align
%% First 4 right and left,
%% balance 4 and turn partners,
%% ladies chain,
%% promenade 4.
%%endtext
% - - - - - - - - - - - - - - - - - - - - - - - - -
%%sep 1 1 300

